X:206
T:Duff of Muirtown
R:Reel
B:The Athole Collection
M:C|
L:1/8
K:G
c|BGBd ~c2 Ac|Bg ~g2 aeef|gGdB ~c2 Ag|f/g/a df gGG:|
a|bagf gdcB|Aaag aeea|bagf gdcB|Gggf gGGa|bagf gdcB|
Aaag aeea|bgfg egBg|Aagf gGG||

